!!!!SEGMENT: pl-wn--mus-iii-72-534--001-003_zarebski-juliusz--etrennes-op-27-menuet.krn
!!!cenid: 18xx:3551
!!!COM: Zarębski, Juliusz
!!!COM-rismID: pe30020631
!!!CDT: 1854/02/28-1885/09/15
!!!CNT:
!!!GTL: Etrennes op. 27
!!!OTL: Menuet
!!!OMV: 003
!!!PDT:
!!!AGN:
!!!YEC: Copyright 2022 Narodowy Instytut Fryderyka Chopina (https://polishscores.org)
!!!YEM: License CC-BY-4.0 (https://creativecommons.org/licenses/by/4.0)
!!!SMS-siglum: PL-Wn
!!!SMS-shelfmark: Mus.III.72.534
!!!SMS-shelfwork: 001-003 G
!!!SMS-variant:
!!!SMS-altvar:
!!!NIFC-rismSourceID:
!!!NIFC-rismChildID:
!!!NIFC-islandoraID: none
!!!URL-pdf-islandora:
!!!URL-scan: https://polona2.pl/item/etrennes-six-morceaux-d-execution-facile-pour-piano-oeuvre-27,MTA4MzU2NzI5/18 @EN{Scan on Polona} @PL{Skany w portalu Polona}
!!!IIIF: https://polona2.pl/iiif/item/MTA4MzU2NzI5/manifest.json
!!!ONB-nifc:
!!!AIN: 2 piano
!!!key: E-
**kern	**kern	**dynam
*part2	*part1	*
*staff2	*staff1	*
*mI"Piano	*mI"Piano	*
*I"[Piano]	*I"[Piano]	*
*mI'pf	*mI'pf	*
*I'	*I'	*
*ICklav	*ICklav	*
*Ipiano	*Ipiano	*
*clefF4	*clefG2	*
*E-:	*E-:	*
*k[b-e-a-]	*k[b-e-a-]	*
*M3/4	*M3/4	*
=1	=1	=1
*xywh-#14:916,670,3023,1064	*xywh-#14:916,670,3023,1064	*
*MM104	*MM104	*
!	!LO:TX:a:B:t=Allegro. ([half]. = 52)	!
!	!LO:TX:b:i:t=dolce e grazioso	!
(8E-\L	(4g/	.
8B-\	.	.
.	8qa-/	.
8e-\	8g/L	.
8B-\	8f/	.
8e-\	8g/	.
8B-\J)	8a-/J	.
=2	=2	=2
(8A-\L	4f/	.
8B-\	.	.
8d\	8b-'\)	.
8B-\	8r	.
8d\	4r	.
8B-\J)	.	.
=3	=3	=3
(8G\L	(4cc\	.
8B-\	.	.
.	8qdd/	.
8e-\	8cc\L	.
8B-\	8b-\	.
8e-\	8cc\	.
8B-\J)	8ee-\J	.
=4	=4	=4
(8F\L	2dd\	.
8B-\	.	.
8c\	.	.
8B-\	.	.
8c\	4a-/)	.
8B-\J)	.	.
!!linebreak:original
=5	=5	=5
*xywh-#14:675,1788,3245,641	*xywh-#14:675,1788,3245,641	*
(8E-\L	(4g/	.
8G\	.	.
8Bn\	4dd\	.
8G\	.	.
8c\	4cc\	.
8G\J)	.	.
=6	=6	=6
(8D\L	4b-\	.
8F\	.	.
8B-X\	4f/	.
8D\	.	.
8E-\	4g/)	.
8B-\J)	.	.
=7	=7	=7
(8F\L	(2an/	.
8e-\	.	.
8f\	.	.
8e-\	.	.
8f\	8b-\L	.
8e-\J)	8cc\J	.
=8	=8	=8
(8B-\L	2b-\)	.
8d\	.	.
8f\	.	.
8d\	.	.
8f\	4bn\	.
8d\J)	.	.
!!linebreak:original
=9	=9	=9
*xywh-#14:692,2450,3215,754	*xywh-#14:692,2450,3215,754	*
(8B-\L	(4cc\	.
8en\	.	.
.	8qdd-X/	.
8g\	8cc\L	<
8e\	8bn\	.
8g\	8cc\	.
8e\J)	8ddn\J	.
=10	=10	=10
(8B-\L	4cc\	.
8en\	.	.
8g\	8gg'\)	.
8e\	8r	.
8g\	4gg\	[
8e\J)	.	.
*clefG2	*	*
=11	=11	=11
(8B-/L	(4aa-\	.
8f/	.	.
.	8qbb-/	.
8a-/	8aa-\L	.
8f/	8gg\	.
8a-/	8aa-\	.
8f/J)	8ccc\J	.
=12	=12	=12
(8A-/L	2dd\)	.
8d/	.	.
8f/	.	.
8b-/	.	.
8f/	4ccc\	.
8d/J)	.	.
!!linebreak:original
=13	=13	=13
*xywh-#14:698,3230,3230,709	*xywh-#14:698,3230,3230,709	*
(8G/L	(8ccc\L	.
8e-/J	8bb-\)	>
8g'/)	(8bb-\	.
8r	8dd\	.
4r	8ee-\	.
.	8gg\J)	.
*clefF4	*	*
=14	=14	=14
(8F\L	(8gg\L	.
8d\J	8ff\)	.
8f'\)	(8ff\	.
8r	8an\	.
4r	8b-\	.
.	8dd\J)	]
=15	=15	=15
(8F\L	(8dd\L	.
8e-\J	8cc\)	.
8f'\)	(8cc\	.
8r	8g\	.
4r	8an\	.
.	8cc\J)	.
=16	=16	=16
(8B-\L	(8cc\L	.
8d\J	8b-\)	.
8f'\)	(8b-\	.
8r	8an\)	.
4r	(8a\	.
.	8b-\J)	.
!!linebreak:original
=17	=17	=17
*xywh-#14:700,3928,3238,754	*xywh-#14:700,3928,3238,754	*
(2B-\	(2b-\	.
4BB-/	4B-/	.
=18	=18	=18
2C-X/	2c-X/	.
4A-X\)	4a-X/)	.
=19	=19	=19
(4.G-X\	(4.g-X/	.
8F\	8f/	.
4E-\)	4e-/)	.
=20	=20	=20
(2D\	(2d/	.
4E-\)	4e-/)	.
=21	=21	=21
!	!LO:MO:mod=(<2.F/ 2.B- 2.d	!
(2.BB-/	(<2.F/ 2.B- 2.d	.
=22	=22	=22
2.EE-/	2.G-X/ 2.B- 2.e-	.
=23	=23	=23
[2.BBB-/	[2.B-/ [2.d [2.f	.
=24	=24	=24
2BBB-/])	2B-/]) 2d] 2f]	.
4r	4f#X/	.
!!pagebreak:original
=25	=25	=25
*xywh-#15:336,530,3255,669	*xywh-#15:336,530,3255,669	*
(8E-\L	(4g/	.
8B-\	.	.
.	8qa-/	.
8e-\	8g/L	.
8B-\	8fn/	.
8e-\	8g/	.
8B-\J)	8a-/J	.
=26	=26	=26
(8E-\L 8A-	4f/	.
8B-\	.	.
8d\	8b-'\)	.
8B-\	8r	.
8d\	4r	.
8B-\J)	.	.
=27	=27	=27
(8E-\L 8G	(4cc\	.
8B-\	.	.
.	8qdd/	.
8e-\	8cc\L	.
8B-\	8b-\	.
8e-\	8cc\	.
8B-\J)	8ee-\J	.
=28	=28	=28
(8E-\L 8F	2dd\	.
8B-\	.	.
8c\	.	.
8B-\	.	.
8c\	4a-/)	.
8B-\J)	.	.
!!linebreak:original
=29	=29	=29
*xywh-#15:372,1238,3191,643	*xywh-#15:372,1238,3191,643	*
(8E-\L	(4g/	<
8G\	.	.
8Bn\	4dd\	.
8G\	.	.
8c\	4cc\	[[
8G\J)	.	.
=30	=30	=30
(8D\L	4b-X\	>
8F\	.	.
8B-X\	4f/	.
8D\	.	.
8E-\	4g/)	]]
8B-\J)	.	.
=31	=31	=31
(8F\L	(2an/	.
8e-\	.	.
8f\	.	.
8e-\	.	.
8f\	8b-\L	.
8e-\J)	8cc\J	.
=32	=32	=32
(8B-\L	2b-\)	.
8d\	.	.
8f\	.	.
8d\	.	.
8f\	4bn\	.
8d\J)	.	.
=33	=33	=33
(8B-\L	(4cc\	<
8en\	.	.
.	8qdd-X/	.
8g\	8cc\L	.
8e\	8bn\	.
8g\	8cc\	.
8e\J)	8dd-\J	[
!!linebreak:original
=34	=34	=34
*xywh-#15:376,1916,3203,647	*xywh-#15:376,1916,3203,647	*
!LO:MO:mod=(>8A-\L	!	!
(>8A-\L	4ddn\	mf
8d\	.	.
8f\	4aa-\	.
8b-<\	.	.
8f\	4gg\	.
8d\J)	.	.
=35	=35	=35
(8G\L	4ff\	>
8B-\	.	.
8e-\	4ee-\	.
8g\	.	.
8e-\	4b-\	]]
8B-\J)	.	.
=36	=36	=36
*^	*^	*
*xywh-#15:376,1916,3203,647	*xywh-#15:376,1916,3203,647	*xywh-#15:376,1916,3203,647	*xywh-#15:376,1916,3203,647	*
2.E-/	2GG\	2bn/	8e-\L	.
.	.	.	8Bn\	.
.	.	.	8g\	.
.	.	.	[8f\	.
.	4AA-\	4cc/)	8f\]	.
.	.	.	8c\J	.
*v	*v	*	*	*
*	*v	*v	*
=37	=37	=37
!	!	!LO:HP:t=dim.
(8A-\L	(4dd\	>
8e-\	.	.
8f\	4cc\	.
8e-\	.	.
8d\	4f/)	.
8c\J	.	.
=38	=38	=38
*	*^	*
*xywh-#15:376,1916,3203,647	*xywh-#15:376,1916,3203,647	*xywh-#15:376,1916,3203,647	*
8B-\L	(2f#X/	2.c#X\	.
8cn\	.	.	.
8B-\	.	.	.
8c\	.	.	.
8B-\	4g/)	.	.
8En\J)	.	.	.
*	*v	*v	*
!!linebreak:original
=39	=39	=39
*xywh-#15:364,2609,3221,707	*xywh-#15:364,2609,3221,707	*
8F\L	(4d/ 4b-	.
8G\	.	.
8F\	4a-/	.
8G\	.	.
8F\	4A-/) 4d	.
8BB-\J	.	.
=40	=40	=40
(2BB-/	(2A-/ 2d	.
4EE-/)	4G/) 4e-	.
=41||	=41||	=41||
*^	*	*
*xywh-#15:364,2609,3221,707	*xywh-#15:364,2609,3221,707	*xywh-#15:364,2609,3221,707	*
2.C/	4r	2.G/ 2.c 2.e-	.
.	4CC\	.	.
.	4CC\	.	.
=42	=42	=42	=42
2.BBn/	4r	(4.G/ 4.d 4.g	.
.	4CC\	.	.
.	.	8f/L	.
.	4CC\	8e-/	.
.	.	8d/J)	.
=43	=43	=43	=43
2.C/	4r	4G/ 4c 4e-	<
.	4CC\	(8e-/L	.
.	.	8g/)	.
.	4CC\	(8g/	.
.	.	8cc/J)	[
=44	=44	=44	=44
2.C/	4r	2.d/ 2.f 2.a- 2.bn	.
.	4CC\	.	.
.	4CC\	.	.
!!linebreak:original
=45	=45	=45	=45
*xywh-#15:381,3314,3203,696	*xywh-#15:381,3314,3203,696	*xywh-#15:381,3314,3203,696	*
2.C/	4r	4e-/ 4g 4cc	.
.	4CC\	(8g\L	<
.	.	8cc\)	.
.	4CC\	(8cc\	.
.	.	8ee-\J)	[
*v	*v	*	*
=46	=46	=46
4r	(2a-^\ 2cc 2ff	f
4c'\	.	.
4c'\	4g\) 4cc 4ee-	.
=47	=47	=47
4r	(2a-^\ 2cc 2ff	.
4c'\	.	.
4c'\	4g\) 4cc 4ee-	.
=48	=48	=48
4r	2.f#X/ 2.an 2.dd	.
4c'\	.	.
4c'\	.	.
=49	=49	=49
!LO:TX:b:i:t=marcato	!	!
(4c\	4f#X/ 4an 4dd	<
4d\	(8a\L	.
.	8dd\)	.
4c\	(8dd\	.
.	8ff#X\J)	[
=50	=50	=50
4B-\	2g^\ 2dd 2gg	.
4c\	.	.
4B-\)	4g\ 4cc 4ee-	.
!!linebreak:original
=51	=51	=51
*xywh-#15:377,4003,3218,609	*xywh-#15:377,4003,3218,609	*
(4c\	4f#X/ 4an 4dd	.
4d\	(8a\L	<
.	8dd\)	.
4c\	(8dd\	.
.	8ff#X\J)	[
=52	=52	=52
4B-\	2g^\ 2dd 2gg	.
4c\	.	.
4B-\)	4g\ 4cc 4ee-	.
=53	=53	=53
4An^\	4f#X^</ 4cc 4dd	.
4G^\	4e-^</ 4b- 4ee-	.
4F#X^\	4e-^</ 4an 4cc	.
=54	=54	=54
4Fn^\	4d^</ 4an 4dd	.
4E-^\	4d^</ 4g 4b-	.
4C^</	4e-^</ 4g 4cc	.
=55	=55	=55
*	*^	*
*xywh-#15:377,4003,3218,609	*xywh-#15:377,4003,3218,609	*xywh-#15:377,4003,3218,609	*
4r	(2b-^/	2.c\ 2.f#X	.
[2D\	.	.	.
.	4an/	.	.
*	*v	*v	*
=56	=56	=56
4D\]	2.Bn/) 2.g	>]
4D\	.	.
4GG/	.	.
!!pagebreak:original
=57	=57	=57
*^	*	*
*xywh-#16:654,693,3219,672	*xywh-#16:654,693,3219,672	*xywh-#16:654,693,3219,672	*
2.D/	4r	4Bn/ 4g	p <
.	4GG\	(8B/L	.
.	.	8f/)	.
.	4GG\	(8f/	.
.	.	8g/J)	[
=58	=58	=58	=58
2.E-/	4r	2c/ 2f 2a-X	>
.	4GG\	.	.
.	4GG\	4c/ 4a- 4cc	]
=59	=59	=59	=59
2.D/	4r	4Bn/ 4g 4bn	<
.	4GG\	(8B/L	.
.	.	8f/)	.
.	4GG\	(8f/	.
.	.	8g/J)	[
=60	=60	=60	=60
2.E-/	4r	2c/ 2f 2a-	>
.	4GG\	.	.
.	4GG\	4c/ 4a- 4cc	]
=61	=61	=61	=61
!	!	!	!LO:HP:t=cresc.
2.G/	4r	4d/ 4g 4bn	<
.	4GG\	(8g\L	.
.	.	8b\)	.
.	4GG\	(8b\	.
.	.	8dd\J)	.
*v	*v	*	*
!!linebreak:original
=62	=62	=62
*xywh-#16:653,1450,3227,695	*xywh-#16:653,1450,3227,695	*
4r	(2a-^\ 2cc 2ff	f
(4c\	.	.
4Bn\)	4g\) 4dd	.
=63	=63	=63
4r	(2a-^\ 2cc 2ff	.
(4c\	.	.
4Bn\)	4g\) 4dd	.
=64	=64	=64
*	*^	*
*xywh-#16:653,1450,3227,695	*xywh-#16:653,1450,3227,695	*xywh-#16:653,1450,3227,695	*
4r	(2gg^/	2.g\ 2.dd	.
2Bn\	.	.	.
.	4ff/)	.	.
*	*v	*v	*
=65	=65	=65
(4c\	4g\ 4cc 4ee-	.
4B-X\	(8g\L	.
.	8dd\)	.
4c\	(8dd\	.
.	8ee-\J)	.
=66	=66	=66
4A-\	(2g\ 2cc 2ee-	.
4B-\	.	.
4A-\)	4f\) 4cc 4ff	.
!!linebreak:original
=67	=67	=67
*xywh-#16:659,2258,3193,695	*xywh-#16:659,2258,3193,695	*
(4B-\	4f/ 4cc 4dd	.
4A-\	(8f/L	.
.	8cc/)	.
4B-\	(8cc/	.
.	8dd/J)	.
=68	=68	=68
4G\	(2f/ 2b- 2dd	.
4A-\	.	.
4G\)	4e-/) 4b- 4ee-	.
=69	=69	=69
!	!	!LO:HP:t=dim.
(4A-\	4e-/ 4b- 4cc	>
4G\	(8e-/L	.
.	8b-/)	.
4A-\	(8b-/	.
.	8cc/J)	.
=70	=70	=70
4F\	(2e-/ 2a- 2cc	.
4G\	.	.
4F\)	4d/) 4a- 4dd	.
=71	=71	=71
(4.G\	2.d/ 2.g 2.bn	.
8F\L	.	.
8E-\	.	.
8D\J	.	.
!!linebreak:original
=72	=72	=72
*xywh-#16:648,3094,3227,740	*xywh-#16:648,3094,3227,740	*
4.C/	2.e-/ 2.g 2.cc	.
8BB-/L	.	.
8AA-/	.	.
[8GG/J)	.	.
=73	=73	=73
4GG/]	2.B-/ 2.c 2.en	p
4GG/	.	.
[4CC/	.	.
=74	=74	=74
4CC/]	2A-/ 2c 2f	.
[2C/	.	.
.	4cc'^\	.
=75	=75	=75
(4C/]	2.F/ 2.A- 2.Bn 2.d	.
4GG/	.	.
[4CC/)	.	.
=76	=76	=76
4CC/]	2G/ 2c 2e-	.
[2C/	.	.
.	4cc'^\	.
=77	=77	=77
!	!	!LO:DY:t=sempre più %s
4C/]	2.B-/ 2.c 2.en	p
4GG/	.	.
[4CC/	.	.
!!linebreak:original
=78	=78	=78
*xywh-#16:639,3894,3269,740	*xywh-#16:639,3894,3269,740	*
4CC/]	2A-/ 2c 2f	.
[2C/	.	.
.	4cc^\	.
=79	=79	=79
4C/]	2.F/ 2.A- 2.Bn 2.d	.
4GG/	.	.
[4CC/	.	.
=80	=80	=80
4CC/]	2G/ 2c 2e-	.
[2C/	.	.
.	4cc^\	.
=81	=81	=81
4C/]	(2G/ 2c 2e-	.
[2C/	.	.
.	4cc\)	.
=82	=82	=82
4C/]	(2G/ 2c 2e-	.
2C/	.	.
.	4cc\)	.
=83	=83	=83
!LO:TX:a:t=ad libitum	!	!
(4CC^/	2.r	.
4EE-^/	.	.
4AA-^/	.	.
=84	=84	=84
4GG/	2.r	.
4BBn/	.	.
4D/)	.	.
!!pagebreak:original
=85	=85	=85
*xywh-#17:307,770,3254,670	*xywh-#17:307,770,3254,670	*
(4C/	2.r	.
4E-\	.	.
4A-\	.	.
=86	=86	=86
4G\	2.r	.
4Bn\	.	.
!	!	!LO:HP:b=2
4d\)	.	<
=87	=87	=87
(4c\	2.r	.
4e-\	.	.
4a-\	.	.
=88	=88	=88
2f#X\	2.r	[
!	!	!LO:DY:b=2:rj
4g\)	.	f
=89	=89	=89
!	!	!LO:HP:b=2
[2.g^\	2.r	>
=90	=90	=90
!LO:TX:t=P:problem= łuk frazowy między 2.g a 4g	!	!
2.g\]	2.r	]
=91||	=91||	=91||
(8E-\L	4g/	p
8B-\	.	.
.	8qa-/	.
8e-\	(8g/L	.
8B-\	8f/	.
8e-\	8g/	.
8B-\J)	8a-/J)	.
!!linebreak:original
=92	=92	=92
*xywh-#17:313,1526,3258,689	*xywh-#17:313,1526,3258,689	*
(8A-\L	(4f/	.
8B-\	.	.
8d\	8b-'/)	.
8B-\	8r	.
8d\	4b-\	.
8B-\J)	.	.
=93	=93	=93
(8G\L	(4cc\	<
8B-\	.	.
.	8qdd/	.
8e-\	8cc\L	.
8B-\	8b-\	.
8e-\	8cc\	.
8B-\J)	8ee-\J	[[
=94	=94	=94
(8F\L	2dd\	>
8B-\	.	.
8c\	.	.
8B-\	.	.
8c\	4a-/)	]
8B-\J)	.	.
=95	=95	=95
(8E-\L	(4g/	<
8G\	.	.
8Bn\	4dd\	.
8G\	.	.
8c\	4cc\	[[
8G\J)	.	.
=96	=96	=96
(8D\L	4b-X\	>
8F\	.	.
8B-X\	4f/	.
8D\	.	.
8E-\	4g/)	]
8B-\J)	.	.
!!linebreak:original
=97	=97	=97
*xywh-#17:341,2293,3220,746	*xywh-#17:341,2293,3220,746	*
(8F\L	(2an/	.
8e-\	.	.
8f\	.	.
8e-\	.	.
8f\	8b-\L	.
8e-\J)	8cc\J	.
=98	=98	=98
(8B-\L	2b-\	.
8d\	.	.
8f\	.	.
8d\	.	.
8f\	4bn\)	.
8d\J)	.	.
=99	=99	=99
(8B-\L	(4cc\	.
8en\	.	.
.	8qdd-X/	.
8g\	8cc\L	.
8e\	8bn\	.
8g\	8cc\	.
8e\J)	8dd-\J)	.
=100	=100	=100
(8B-\L	(4cc\	.
8en\	.	.
8g\	8gg\)	.
8e\	8r	.
8g\	4gg\	<
8e\J)	.	.
*clefG2	*	*
=101	=101	=101
(8B-/L	(4aa-\	.
8f/	.	.
.	8qbb-/	.
8a-/	8aa-\L	.
8f/	8gg\	.
8a-/	8aa-\	.
8f/J)	8ccc\J	[
!!linebreak:original
=102	=102	=102
*xywh-#17:307,3099,3281,788	*xywh-#17:307,3099,3281,788	*
(8A-/L	2dd\	.
8d/	.	.
8f/	.	.
8b-/	.	.
8f/	4ccc\)	.
8d/J)	.	.
=103	=103	=103
(8G/L	(8ccc\L	>
8e-/J	8bb-\)	.
8g'/)	(8bb-\	.
8r	8dd\	.
4r	8ee-\	.
.	8gg\J)	.
*clefF4	*	*
=104	=104	=104
(8F\L	(8gg\L	.
8d\J	8ff\)	]
8f'\)	(8ff\	.
8r	8an\	.
4r	8b-\	.
.	8dd\J)	.
=105	=105	=105
(8F\L	(8dd\L	.
8e-\J	8cc\)	.
8f\)	(8cc\	.
8r	8g\	.
4r	8an\	.
.	8cc\J)	.
=106	=106	=106
(8B-\L	(8cc\L	.
8d\J	8b-\)	.
8f\)	(8b-\	.
8r	8an\)	.
4r	(8a\	.
.	8b-\J)	.
!!linebreak:original
=107	=107	=107
*xywh-#17:305,3970,3254,723	*xywh-#17:305,3970,3254,723	*
(2B-\	(2b-\	.
4BB-/	4B-/	.
=108	=108	=108
2C-X/	2c-X/	.
4A-X\	4a-X/	.
=109	=109	=109
4.G-X\	4.g-X/	.
8F\	8f/	.
4E-'\)	4e-'/)	.
=110	=110	=110
(2D\	(2d/	.
4E-\)	4e-/)	.
=111	=111	=111
(2.BB-/	(<2.F/ 2.B- 2.d	.
=112	=112	=112
2.EE-/	2.G-X/ 2.B- 2.e-	.
=113	=113	=113
[2.BBB-/)	[2.B-/) [2.d [2.f	.
=114	=114	=114
2BBB-/]	2B-/] 2d] 2f]	.
4r	4f#X/	.
!!pagebreak:original
=115	=115	=115
*xywh-#18:740,650,3195,582	*xywh-#18:740,650,3195,582	*
(8E-\L	(4g/	.
8B-\	.	.
.	8qa-/	.
8e-\	8g/L	.
8B-\	8f/	.
8e-\	8g/	.
8B-\J)	8a-/J	.
=116	=116	=116
(8E-\L 8A-	4f/	.
8B-\	.	.
8d\	8b-'\)	.
8B-\	8r	.
8d\	4b-\	.
8B-\J)	.	.
=117	=117	=117
(8E-\L 8G	(4cc\	.
8B-\	.	.
.	8qdd/	.
8e-\	8cc\L	.
8B-\	8b-\	.
8e-\	8cc\	.
8B-\J)	8ee-\J	.
=118	=118	=118
(8E-\L 8F	2dd\	.
8B-\	.	.
8d\	.	.
8B-\	.	.
8d\	4a-/)	.
8B-\J)	.	.
=119	=119	=119
(8E-\L	(4g/	.
8G\	.	.
8Bn\	4dd\	.
8G\	.	.
8c\	4cc\	.
8G\J	.	.
!!linebreak:original
=120	=120	=120
*xywh-#18:723,1295,3225,680	*xywh-#18:723,1295,3225,680	*
8D\L	4b-X\	.
8F\	.	.
8B-X\	4f/	.
8D\	.	.
8E-\	4g/)	.
8B-\J)	.	.
=121	=121	=121
(8F\L	(2an/	.
8e-\	.	.
8f\	.	.
8e-\	.	.
8f\	8b-\L	.
8e-\J)	8cc\J	.
=122	=122	=122
(8B-\L	2b-\)	.
8d\	.	.
8f\	.	.
8d\	.	.
8f\	4bn\	.
8d\J)	.	.
=123	=123	=123
(8B-\L	(4cc\	<
8en\	.	.
.	8qdd-X/	.
8g\	8cc\L	.
8e\	8bn\	.
8g\	8cc\	.
8e\J)	8dd-\J	.
*clefG2	*	*
=124	=124	=124
(8A-/L	4ddn\	.
8d/	.	.
8f/	4aa-\	.
8b-/	.	.
8f/	4gg\	[[
8d/J)	.	.
!!linebreak:original
=125	=125	=125
*xywh-#18:723,1989,3188,665	*xywh-#18:723,1989,3188,665	*
(8G/L	4ff/	.
8B-/	.	.
8e-/	4ee-/	.
8g/	.	.
8e-/	4b-'/)	.
8B-/J)	.	.
*clefF4	*	*
=126	=126	=126
*^	*^	*
*xywh-#18:723,1989,3188,665	*xywh-#18:723,1989,3188,665	*xywh-#18:723,1989,3188,665	*xywh-#18:723,1989,3188,665	*
2.E-/	2GG\	(2bn/	8e-\L	.
.	.	.	8Bn\	.
.	.	.	8g\	.
.	.	.	[8f\	.
.	4AA-\	4cc/)	8f\]	.
.	.	.	8c\J	.
*v	*v	*	*	*
*	*v	*v	*
=127	=127	=127
!	!	!LO:HP:t=dim.
(8A-\L	(4dd\	>
8e-\	.	.
8f\	4cc\	.
8e-\	.	.
8d\	4f/)	.
8c\J)	.	.
=128	=128	=128
*	*^	*
*xywh-#18:723,1989,3188,665	*xywh-#18:723,1989,3188,665	*xywh-#18:723,1989,3188,665	*
(8B-\L	(2f#X/	2.c#X\	.
8cn\	.	.	.
8B-\	.	.	.
8c\	.	.	.
8B-\	4g/)	.	.
8En\J	.	.	.
*	*v	*v	*
=129	=129	=129
8F\L	(4d/ 4b-	.
8G\	.	.
8F\	4a-/	.
8G\	.	.
8F\	4A-/) 4d	.
8BB-\J)	.	.
!!linebreak:original
=130	=130	=130
*xywh-#18:727,2680,3225,646	*xywh-#18:727,2680,3225,646	*
(2BB-/	(2A-/ 2d	.
4EE-'/)	4G'/) 4e-	.
=131	=131	=131
(2B-\	(2f\ 2a- 2dd	pp
4E-'\)	4g'\) 4ee-	.
=132	=132	=132
(>2BB-\	(<2F>/ 2A-> 2d->X	.
4EE-'\)	4G>'/) 4e->	.
=133	=133	=133
(2B-\	(2f\ 2a- 2dd-X	.
4E-'\)	4g'\) 4ee-	.
=134	=134	=134
(2AA-/ 2E-	(2A-/ 2c	.
4EE-'/)	4B-'/) 4dn	.
=135	=135	=135
(2A-\ 2e-	(2a-\ 2cc	.
4E-'\)	4b-'\) 4dd	.
=136	=136	=136
(2BB-/ 2D	(2G/ 2B-	.
4EE-'/)	4F'/) 4A- 4c	.
=137	=137	=137
(2B-\ 2d	(2g/ 2b-	.
4E-'\)	4f'/) 4a- 4cc	.
!!linebreak:original
=138	=138	=138
*xywh-#18:712,3291,3240,703	*xywh-#18:712,3291,3240,703	*
(2BB-/ 2E-	(2G/ 2B-	.
4EE-'/)	4A-'/) 4c	.
=139	=139	=139
(2B-\ 2d	(2g/ 2b-	.
4E-'\)	4f'/) 4a- 4cc	.
=140	=140	=140
(2BB-/ 2E-	(2G/ 2B-	.
4EE-'/)	4A-'/) 4c	.
=141	=141	=141
(2B-\ 2d	(2g/ 2b-	.
4E-'\)	4f'/) 4a- 4cc	.
=142	=142	=142
*ped	*	*
[2.E-\ [2.B- [2.d	4f/ 4a- 4cc	.
.	(8f\L	.
.	8a-\	.
.	8b-\	.
.	8cc#X\J	.
=143	=143	=143
2.E-\_ 2.B-_ 2.d_	8dd\L	.
.	8een\	.
.	8ff\	.
.	8aa-\	.
.	8bb-\	.
.	8ccc#X\J	.
!!linebreak:original
=144	=144	=144
*xywh-#18:708,3984,3252,759	*xywh-#18:708,3984,3252,759	*
*	*8va	*
2.E-\_ 2.B-_ 2.d_	8ddd\L	.
.	8eeen\	.
.	8fff\	.
.	8aaa-\	.
.	8bbb-\	.
.	8cccc#X\J	.
=145	=145	=145
2.E-\] 2.B-] 2.d]	8dddd\L	.
.	8eeeen\	.
.	8ffff\	.
.	8gggg\	.
.	8aaaa-\	.
.	8dddd\J)	.
*Xped	*	*
*clefG2	*	*
=146	=146	=146
*ped	*	*
4ee-'\ 4bb-	4ggg'\ 4eeee-X	.
*	*X8va	*
4r	4r	.
4r	4r	.
=147	=147	=147
4e-'/ 4b-	4gg'\ 4eee-	.
4r	4r	.
4r	4r	.
=148	=148	=148
!LO:TX:a:B:t=1:mod=	!	!
2.r	2.r	.
*clefF4	*	*
=149	=149	=149
4E-'\ 4B-	4g'\ 4ee-	.
4r	4r	.
4r	4r	.
=150	=150	=150
2.EE-/ 2.BB-	2.G/ 2.e-	.
*Xped	*	*
==	==	==
*-	*-	*-
!!!system-decoration: {(s1,s2)}
!!!RDF**kern: < = above
!!!RDF**kern: > = below
!!!filter-modern: shed -e "s/:t=P:/:T=P:/L"
!!!filter-modern: shed -e "s/^(\d+[\/\\]right)/$1yy/I; s/^(\d+[\/\\]left)/$1yy/I"
!!!filter-modern: humtr -p
!!!filter-modern: shed -e "s/yy//"
!!!filter-modern: shed -k -e "s/\(y(?!y)/(/"
!!!filter-modern: shed -k -e "s/([\(\)\[\]])[><]/$1/g"
!!!filter-modern: shed -k -e “s/([()[]_])[><]/$1/g”
!!!filter-modern: tie -s
!!!filter-modern: shed -e "s/^(X?)rep$/$1REP/I"
!!!filter-modern: shed -k -e "s/^(X?)tuplet/$1TUPLET/I"
!!!filter-modern: shed -e "s/LO:DY:(a|b|rj)/LO:dy:$1/L"
!!!filter-modern: shed -e "s/LO:HP:(a|b)/LO:hp:$1/L"
!!!filter-modern: shed -k -e "s/r[a-gA-G]+/r/D"
!!!filter-modern: shed -k -e "s/([^a-gA-Gn#-])[<>]/$1/g"
!!!filter-modern: sic -sq
!!!filter-modern: autostem -r
!!!filter-modern: modori -m
!!!ENC: Filip Voros
!!!END: 2022-02-08
!!!EED: Natalia Wrzos
!!!EEV: 2022-02-15
!!!ENC-iiif: Jolanta Bujas-Poniatowska
!!!END-iiif: 2022-09-09
!!!ENC-modern: Krzysztof Stępień
!!!END-modern: 2022-10-05
